src/assets/activity/light/voteOnBehalfOf.svg

<svg width="24" height="24" viewBox="0 0 24 24" fill="none" xmlns="http://www.w3.org/2000/svg">
<path fill-rule="evenodd" clip-rule="evenodd" d="M12 24C18.6274 24 24 18.6274 24 12C24 5.37258 18.6274 0 12 0C5.37258 0 0 5.37258 0 12C0 18.6274 5.37258 24 12 24Z" fill="url(#paint0_linear_41_681)"/>
<path d="M11 18.3319C11 18.5609 11.1876 18.7485 11.4168 18.7485H13.5775L13.3003 20.0708C13.2669 20.2262 13.3148 20.388 13.4273 20.4997L13.7586 20.8315L15.8167 18.7734C15.9297 18.6608 16.0001 18.505 16.0001 18.3319V15.6244C16.0001 15.2786 15.7211 14.9994 15.3752 14.9994H12.5625C12.3044 14.9994 12.0818 15.1556 11.9875 15.3804L11.0439 17.5849C11.0168 17.6552 11 17.7303 11 17.8115V18.3323V18.3319Z" fill="#F4FFFB" fill-opacity="0.7"/>
<path d="M13.3192 4.56438C12.9307 4.20255 12.403 3.99944 11.8528 4C10.7073 3.99972 9.77838 4.86177 9.77808 5.92548C9.77777 6.98919 10.7061 7.85173 11.8517 7.85201C12.9972 7.85229 13.9261 6.99024 13.9264 5.92653C13.9265 5.41568 13.7081 4.92569 13.3192 4.56438Z" fill="#DEFDE3"/>
<path fill-rule="evenodd" clip-rule="evenodd" d="M12.103 8.44458H11.8985C9.74745 8.44989 8.00507 10.1911 7.99976 12.3405V12.6156C7.99976 12.7667 8.12231 12.8892 8.27352 12.8892H15.7263C15.8775 12.8892 16.0001 12.7667 16.0001 12.6156V12.3405C15.9939 10.192 14.253 8.45166 12.103 8.44458Z" fill="#DEFDE3"/>
<path d="M13.0001 14.4996C12.9989 14.2691 12.8126 14.0829 12.5834 14.0829H10.4226L10.6998 12.7606C10.7333 12.6052 10.6854 12.4434 10.5729 12.3317L10.2415 12L8.18341 14.058C8.07047 14.1707 8 14.3269 8 14.4996V17.2071C8 17.5529 8.27908 17.8321 8.6249 17.8321H11.4377C11.6957 17.8321 11.9184 17.6758 12.0126 17.4511L12.9563 15.2475C12.9833 15.1767 13.0001 15.1016 13.0001 15.0204V14.4996V14.4996Z" fill="white"/>
<defs>
<linearGradient id="paint0_linear_41_681" x1="24" y1="-5.23869e-06" x2="-0.598279" y2="0.629711" gradientUnits="userSpaceOnUse">
<stop stop-color="#B3FCB6"/>
<stop offset="1" stop-color="#8DE995"/>
</linearGradient>
</defs>
</svg>

<svg width="24" height="24" fill="none" xmlns="http://www.w3.org/2000/svg"><path fill-rule="evenodd" clip-rule="evenodd" d="M12 24c6.627 0 12-5.373 12-12S18.627 0 12 0 0 5.373 0 12s5.373 12 12 12z" fill="url(#a)"/><path d="M11 18.332c0 .229.188.416.417.416h2.16l-.277 1.323a.466.466 0 0 0 .127.429l.332.331 2.058-2.058a.62.62 0 0 0 .183-.441v-2.708a.624.624 0 0 0-.625-.625h-2.813a.623.623 0 0 0-.574.381l-.944 2.205a.624.624 0 0 0-.044.226v.521z" fill="#F4FFFB" fill-opacity=".7"/><path d="M13.32 4.564A2.15 2.15 0 0 0 11.852 4c-1.146 0-2.075.862-2.075 1.925 0 1.064.928 1.927 2.074 1.927 1.145 0 2.074-.862 2.074-1.925 0-.511-.218-1.001-.607-1.363z" fill="#DEFDE3"/><path fill-rule="evenodd" clip-rule="evenodd" d="M12.103 8.445h-.204a3.907 3.907 0 0 0-3.9 3.896v.275c0 .15.123.273.275.273h7.452a.274.274 0 0 0 .274-.273v-.275a3.909 3.909 0 0 0-3.897-3.896z" fill="#DEFDE3"/><path d="M13 14.5a.418.418 0 0 0-.417-.417h-2.16l.277-1.322a.466.466 0 0 0-.127-.43L10.24 12l-2.058 2.058A.622.622 0 0 0 8 14.5v2.707c0 .346.28.625.625.625h2.813c.258 0 .48-.156.575-.38l.943-2.205A.631.631 0 0 0 13 15.02v-.52z" fill="#fff"/><defs><linearGradient id="a" x1="24" y1="0" x2="-.598" y2=".63" gradientUnits="userSpaceOnUse"><stop stop-color="#B3FCB6"/><stop offset="1" stop-color="#8DE995"/></linearGradient></defs></svg>
